X:1
T:Sari Gelin (Fair-Haired Bride)
C:Trad Armenian/Azerbaijani (pre-1900)
S:Public domain — traditional folk song, origin disputed but pre-1900
M:4/4
L:1/8
Q:1/4=66
K:Am
H:A natural minor with Phrygian (b2) flavour. Range A3-E4.
H:One of the most widely-known Caucasian folk melodies.
{B,}A,4 {A,}G,2 A,2 | B,4 {C}B,2 A,2 | G,4 A,2 B,2 | {C}C8 |
{D}D4 E2 F2 | {G}G4 {F}E4 | {F}E2 D2 C2 B,2 | A,8 |
E4 {F}E2 D2 | C4 B,4 | A,2 B,2 C2 D2 | E8 |
{F}E4 D2 C2 | B,4 {C}B,4 | A,2 G,2 A,2 B,2 | A,8 |]
